packages/tokens/icons/clipboard2/size32Px.svg

<svg viewBox="0 0 32 32" fill="none" xmlns="http://www.w3.org/2000/svg" width="1em" height="1em"><path d="M12.5 5.5C11.7313 5.5 9.9297 5.5 8.49999 5.5C7.39542 5.5 6.5 6.39543 6.5 7.5L6.5 27.5C6.5 28.6046 7.39543 29.5 8.5 29.5L23.5 29.5C24.6046 29.5 25.5 28.6046 25.5 27.5L25.5 7.5C25.5 6.39543 24.6046 5.5 23.5 5.5L19.5 5.5" stroke="currentColor" stroke-linecap="round"/><path d="M12 7.5L9.5 7.5C8.94772 7.5 8.5 7.94772 8.5 8.5L8.5 26.5C8.5 27.0523 8.94772 27.5 9.5 27.5L22.5 27.5C23.0523 27.5 23.5 27.0523 23.5 26.5L23.5 8.5C23.5 7.94772 23.0523 7.5 22.5 7.5L20 7.5" stroke="currentColor"/><path d="M11.5 6C11.5 5.72386 11.7239 5.5 12 5.5L20 5.5C20.2761 5.5 20.5 5.72386 20.5 6V8C20.5 8.27614 20.2761 8.5 20 8.5L12 8.5C11.7239 8.5 11.5 8.27614 11.5 8V6Z" stroke="currentColor"/><path d="M13.5 4C13.5 3.72386 13.7239 3.5 14 3.5L18 3.5C18.2761 3.5 18.5 3.72386 18.5 4V5.5L13.5 5.5V4Z" stroke="currentColor"/><circle cx="16" cy="16" r="4.5" stroke="currentColor"/><path d="M14 16L15.5 17.5L18 15" stroke="currentColor" stroke-linecap="round" stroke-linejoin="round"/><line x1="11.5" y1="23.5" x2="20.5" y2="23.5" stroke="currentColor" stroke-linecap="round"/><line x1="11.5" y1="25.5" x2="20.5" y2="25.5" stroke="currentColor" stroke-linecap="round"/></svg>

<svg xmlns="http://www.w3.org/2000/svg" fill="none" viewBox="0 0 32 32" width="1em" height="1em"><path stroke="currentColor" stroke-linecap="round" d="M12.5 5.5h-4a2 2 0 0 0-2 2v20a2 2 0 0 0 2 2h15a2 2 0 0 0 2-2v-20a2 2 0 0 0-2-2h-4"/><path stroke="currentColor" d="M12 7.5H9.5a1 1 0 0 0-1 1v18a1 1 0 0 0 1 1h13a1 1 0 0 0 1-1v-18a1 1 0 0 0-1-1H20"/><path stroke="currentColor" d="M11.5 6a.5.5 0 0 1 .5-.5h8a.5.5 0 0 1 .5.5v2a.5.5 0 0 1-.5.5h-8a.5.5 0 0 1-.5-.5V6Zm2-2a.5.5 0 0 1 .5-.5h4a.5.5 0 0 1 .5.5v1.5h-5V4Z"/><circle cx="16" cy="16" r="4.5" stroke="currentColor"/><path stroke="currentColor" stroke-linecap="round" stroke-linejoin="round" d="m14 16 1.5 1.5L18 15"/><path stroke="currentColor" stroke-linecap="round" d="M11.5 23.5h9m-9 2h9"/></svg>
